packages/components/bolt-icons/src/svgs/pega/pega-building-factory.svg

<svg viewBox="0 0 32 32" xmlns="http://www.w3.org/2000/svg"><path fill="#fff" d="m31.55 9.28a1 1 0 0 0 -.95-.07l-10 4.37v-3.46a1 1 0 0 0 -.45-.84 1 1 0 0 0 -1-.07l-10.29 4.56-.86-12.09a1 1 0 0 0 -1-.93h-6a1 1 0 0 0 -1 1v28.5a1 1 0 0 0 1 1h30a1 1 0 0 0 1-1v-20.13a1 1 0 0 0 -.45-.84zm-1.55 19.97h-28v-26.5h4l1 12.58a1 1 0 0 0 .48.78 1 1 0 0 0 .92.06l10.27-4.52v3.46a1 1 0 0 0 .46.84 1 1 0 0 0 .95.08l10-4.38z"/></svg>

<svg id="icon-building-factory" data-name="building-factory" xmlns="http://www.w3.org/2000/svg" viewBox="0 0 32 32"><path d="M31.55,9.28a1,1,0,0,0-.95-.07l-10,4.37V10.12a1,1,0,0,0-.45-.84,1,1,0,0,0-1-.07L8.86,13.77,8,1.68A1,1,0,0,0,7,.75H1a1,1,0,0,0-1,1v28.5a1,1,0,0,0,1,1H31a1,1,0,0,0,1-1V10.12A1,1,0,0,0,31.55,9.28ZM30,29.25H2V2.75H6L7,15.33a1,1,0,0,0,.48.78,1,1,0,0,0,.92.06l10.27-4.52v3.46a1,1,0,0,0,.46.84,1,1,0,0,0,.95.08l10-4.38Z"/></svg>
